X: 26594
T: Mick O'Connor's
R: reel
M: 4/4
K: Dmajor
fef|:d2FB AFED|E/F/G AB ABde|fABA FAde|~f2af efdB|
[D3A3]B ABde|fAAd ~B3F|ABde fabf|1 afef dfef:|2 afef dcde||
|:fa~a2 bafe|~f3d efdB|ABde ~f3g|~a3f efde|
fa~a2 bafa|afde fdee|defe dBBd|1 AFEF [D3A3]a:|2 AFEF Dfef:|

